X: 26537
T: Michael's Dream
R: hornpipe
M: 4/4
K: Gmajor
Bc|:d^cde dBGB|c/B/A B/A/G AGEG|DGGF GABc|dBGB A2 Bc|
d^cde dBGB|c/B/A B/A/G AGEG|DGGF GBdB|1 AGAB G2 Bc:|2 AGAB G2 G/F/E||
|:DGGF GBdB|AGAB GEDB,|DGGF GBdB|AGAB G2 G/F/E|
DGGF GBdB|AGAB GE D2|GABd gedB|1 AGAB G2 G/F/E:|2 AGAB G2||

